X:045
T:Russian Dance,The TS.045
T:Opera Hat,aka TS.045
M:2/4
L:1/8
Q:1/2=80
S:Thomas Sands’ MS,1810,Lincolnshire
R:country dance
O:England;Lincolnshire
Z:vmp.Ruairidh Greig, 2011
K:G
DG|B2DG|B2DG|cdBc|A2DF|A2DF|A2DF|Bc AB|G2:|
|:dc|B2BA|G2gf|e2e2|e2cB|A2AG|FA dF|GFGF|G3:|

